X:28
T:Hpps simple chords 61
M:3/4
L:1/8
K:D
d>=c [BG,B,D]>g d>B | A>e =c>A [GG,B,D]>d | B>G F>=c A>F | [GG,B,D]>D E>F G>A | B>=c [^cA,CEG]>d e>d |
f>e d>=c [BG,B,D]>g | d>B A>e =c>A | [GG,B,D]>d B>G F>=c | A>F [GG,B,D]>D E>F |
G>A B>=c [^cD,F,A,=C]>d | e>f g2 d>=c | [BG,B,D]>g d>B A>e | =c>A [GG,B,D]>d B>G |
F>=c A>F [GG,B,D]>D | E>F G>A B>=c | [cA,CEG]>d e>d f>e | d>=c [BG,B,D]>g d>B |
A>e =c>A [GG,B,D]>d | B>G F>=c A>F | [GG,B,D]>D E>F G>A | B>=c [^cD,F,A,=C]>d e>f |
g2 A2 [AD,F,A,]>d | c>d e>d c>d | [BE,G,B,]>e ^d>e f>e | ^d>e [gA,CEG]>f e>=d |
c>B A>G [FD,F,A,]>A | ^G>B A2 A2 | [AD,F,A,]>d c>d e>d | c>d [BE,G,B,]>e ^d>e |
f>e ^d>e [gA,CEG]>f | e>d c>A B>c | [d2D,2F,2A,2] f2 d2 | A2 [AD,F,A,]>d c>d |
e>d c>d [BE,G,B,]>e | ^d>e f>e d>e | [gA,CEG]>f e>d c>B | A>G [FD,F,A,]>A ^G>B |
A2 A2 [AD,F,A,]>d | c>d e>d c>d | [BE,G,B,]>e ^d>e f>e | ^d>e [gA,CEG]>f e>=d |
c>A B>c [d2D,2F,2A,2] | f2 d2 |


